!!!!SEGMENT: pl-sa--l-1643--075_anonim--domus-mea-domus-orationis.krn
!!!cenid: 16xx:1437
!!!COM: Anonim
!!!COM-rismID: pe30004985
!!!CDT:
!!!CNT:
!!!OTL: Domus mea domus orationis
!!!PDT:
!!!AGN: Sacred
!!!YEC: Copyright 2022 Narodowy Instytut Fryderyka Chopina (https://polishscores.org)
!!!YEM: License CC-BY-4.0 (https://creativecommons.org/licenses/by/4.0)
!!!SMS-siglum: PL-SA
!!!SMS-shelfmark: L 1643
!!!SMS-shelfwork: 075 W
!!!SMS-variant:
!!!SMS-altvar:
!!!NIFC-rismSourceID: 1001063829
!!!NIFC-rismChildID: 1001063829
!!!NIFC-islandoraID:
!!!URL-pdf-islandora:
!!!URL-scan:
!!!IIIF:
!!!ONB-nifc: UWAGA: 8 ksiąg. Primi chori: 1mus Cantus (x), C 2dus (126), C 3tius (x), Bassus (x); Secondi chori: Primus Cantus (x), C 2dus (x), Altus (x), Bassus (118-119). UWAGA: Nie dodawać pustych linii, chyba że w rękopisie pojawiają się dodatkowe oznaczenia dotyczące pełnej obsady (a 4, a 8 itp.)
!!!AIN: 8 empty
!!!key:
**kern	**text	**kern	**kern	**kern	**kern	**kern	**kern	**text	**kern
*group2	*	*group2	*group2	*group2	*group1	*group1	*group1	*	*group1
*part8	*	*part7	*part6	*part5	*part4	*part3	*part2	*	*part1
*staff8	*	*staff7	*staff6	*staff5	*staff4	*staff3	*staff2	*	*staff1
*Iempty	*	*Iempty	*Iempty	*Iempty	*Iempty	*Iempty	*Iempty	*	*Iempty
*I"Bassus 2di Chori	*	*I"Altus secundi Chori.	*I"Cantus 2dus Secundi Chori.	*I"Primus Cantus 2di Chori	*I"Bassus Primi Chori.	*I"Cantus 3tius Primi Chori	*I"Cantus 2dus Primi Chori.	*	*I"Im(us) Cantus Primi Chori
*I'Coro 2 B	*	*I'Coro 2 A	*I'Coro 2 S 2	*I'Coro 2 S 1	*I'Coro 1 B	*I'Coro 1 S 3	*I'Coro 1 S 2	*	*I'Coro 1 S 1
*clefC3	*	*	*	*	*	*	*clefC1	*	*
*k[b-]	*	*	*	*	*	*	*k[b-]	*	*
*F:	*	*	*	*	*	*	*F:	*	*
*M2/2	*	*	*	*	*	*	*M2/2	*	*
*met(C|)	*	*	*	*	*	*	*met(C|)	*	*
=1-	=1-	=1-	=1-	=1-	=1-	=1-	=1-	=1-	=1-
!LO:TX:a:t=Pro feſto dedica\ncionis Templi A 8 V	!	!	!	!	!	!	!	!	!
1.f	Do-	1ryy	1ryy	1ryy	1ryy	1ryy	0r	.	1ryy
=2-	=2-	=2-	=2-	=2-	=2-	=2-	=2-	=2-	=2-
.	.	1ryy	1ryy	1ryy	1ryy	1ryy	.	.	1ryy
2f\	-mus	.	.	.	.	.	.	.	.
=3-	=3-	=3-	=3-	=3-	=3-	=3-	=3-	=3-	=3-
4B-/	me-	1ryy	1ryy	1ryy	1ryy	1ryy	1r	.	1ryy
4c/	.	.	.	.	.	.	.	.	.
4d\	.	.	.	.	.	.	.	.	.
4e\	.	.	.	.	.	.	.	.	.
=4-	=4-	=4-	=4-	=4-	=4-	=4-	=4-	=4-	=4-
2f\	-a	1ryy	1ryy	1ryy	1ryy	1ryy	2r	.	1ryy
2r	.	.	.	.	.	.	1dd\	Do-	.
=5-	=5-	=5-	=5-	=5-	=5-	=5-	=5-	=5-	=5-
00r	.	1ryy	1ryy	1ryy	1ryy	1ryy	.	.	1ryy
.	.	.	.	.	.	.	2b-\	-mus	.
=6-	=6-	=6-	=6-	=6-	=6-	=6-	=6-	=6-	=6-
.	.	1ryy	1ryy	1ryy	1ryy	1ryy	2cc\	o-	1ryy
.	.	.	.	.	.	.	2.a\	-ra-	.
=7-	=7-	=7-	=7-	=7-	=7-	=7-	=7-	=7-	=7-
.	.	1ryy	1ryy	1ryy	1ryy	1ryy	.	.	1ryy
.	.	.	.	.	.	.	4b-\	.	.
.	.	.	.	.	.	.	2cc\	-ti-	.
=8-	=8-	=8-	=8-	=8-	=8-	=8-	=8-	=8-	=8-
.	.	1ryy	1ryy	1ryy	1ryy	1ryy	2.dd\	-o-	1ryy
.	.	.	.	.	.	.	4cc\	.	.
=9-	=9-	=9-	=9-	=9-	=9-	=9-	=9-	=9-	=9-
0r	.	1ryy	1ryy	1ryy	1ryy	1ryy	2b-\	-nis	1ryy
.	.	.	.	.	.	.	2b-\	uo-	.
=10-	=10-	=10-	=10-	=10-	=10-	=10-	=10-	=10-	=10-
.	.	1ryy	1ryy	1ryy	1ryy	1ryy	2.a\	-ca-	1ryy
.	.	.	.	.	.	.	4a\	-bi-	.
=11-	=11-	=11-	=11-	=11-	=11-	=11-	=11-	=11-	=11-
2r	.	1ryy	1ryy	1ryy	1ryy	1ryy	2b-\	-tur	1ryy
!LO:LB:g=original	!	!	!	!	!	!	!	!	!
1B-/	Do-	.	.	.	.	.	2r	.	.
=12-	=12-	=12-	=12-	=12-	=12-	=12-	=12-	=12-	=12-
.	.	1ryy	1ryy	1ryy	1ryy	1ryy	0r	.	1ryy
2B-/	-mus	.	.	.	.	.	.	.	.
=13-	=13-	=13-	=13-	=13-	=13-	=13-	=13-	=13-	=13-
1e-X	me-	1ryy	1ryy	1ryy	1ryy	1ryy	.	.	1ryy
=14-	=14-	=14-	=14-	=14-	=14-	=14-	=14-	=14-	=14-
2B-/	-a	1ryy	1ryy	1ryy	1ryy	1ryy	2r	.	1ryy
2r	.	.	.	.	.	.	2dd\	do-	.
=15-	=15-	=15-	=15-	=15-	=15-	=15-	=15-	=15-	=15-
00r	.	1ryy	1ryy	1ryy	1ryy	1ryy	2b-\	-mus	1ryy
.	.	.	.	.	.	.	2.a\	o-	.
=16-	=16-	=16-	=16-	=16-	=16-	=16-	=16-	=16-	=16-
.	.	1ryy	1ryy	1ryy	1ryy	1ryy	.	.	1ryy
.	.	.	.	.	.	.	4b-\	-ra-	.
*	*	*	*	*	*	*	*custos:dd	*	*
.	.	.	.	.	.	.	2cc\	-ti-	.
!	!	!	!	!	!	!	!LO:LB:g=original	!	!
=17-	=17-	=17-	=17-	=17-	=17-	=17-	=17-	=17-	=17-
.	.	1ryy	1ryy	1ryy	1ryy	1ryy	1dd	-o-	1ryy
=18-	=18-	=18-	=18-	=18-	=18-	=18-	=18-	=18-	=18-
.	.	1ryy	1ryy	1ryy	1ryy	1ryy	2b-\	-nis	1ryy
.	.	.	.	.	.	.	2b-\	uo-	.
=19-	=19-	=19-	=19-	=19-	=19-	=19-	=19-	=19-	=19-
1r	.	1ryy	1ryy	1ryy	1ryy	1ryy	2.a\	-ca-	1ryy
.	.	.	.	.	.	.	4a\	-bi-	.
=20-	=20-	=20-	=20-	=20-	=20-	=20-	=20-	=20-	=20-
*M3/2	*	*	*	*	*	*	*M3/2	*	*
0.r	.	1.ryy	1.ryy	1.ryy	1.ryy	1.ryy	2b-,<\	-tur,	1.ryy
.	.	.	.	.	.	.	2cc\	Al-	.
.	.	.	.	.	.	.	2cc\	-le-	.
=21-	=21-	=21-	=21-	=21-	=21-	=21-	=21-	=21-	=21-
.	.	1.ryy	1.ryy	1.ryy	1.ryy	1.ryy	2.a\	-lu-	1.ryy
.	.	.	.	.	.	.	4b-\	.	.
.	.	.	.	.	.	.	2cc,<\	-ia	.
=22-	=22-	=22-	=22-	=22-	=22-	=22-	=22-	=22-	=22-
1.r	.	1.ryy	1.ryy	1.ryy	1.ryy	1.ryy	2b-\	al-	1.ryy
.	.	.	.	.	.	.	2a\	-le-	.
.	.	.	.	.	.	.	2cc\	-lu-	.
=23-	=23-	=23-	=23-	=23-	=23-	=23-	=23-	=23-	=23-
2r	.	1.ryy	1.ryy	1.ryy	1.ryy	1.ryy	2cc\	-ia;	1.ryy
2d\	Al-	.	.	.	.	.	2r	.	.
2A/	-le-	.	.	.	.	.	2r	.	.
=24-	=24-	=24-	=24-	=24-	=24-	=24-	=24-	=24-	=24-
1B-	-lu-	1.ryy	1.ryy	1.ryy	1.ryy	1.ryy	0.r	.	1.ryy
2F,</	-ia	.	.	.	.	.	.	.	.
=25-	=25-	=25-	=25-	=25-	=25-	=25-	=25-	=25-	=25-
2B-/	Al-	1.ryy	1.ryy	1.ryy	1.ryy	1.ryy	.	.	1.ryy
2G/	-le-	.	.	.	.	.	.	.	.
2A/	-lu-	.	.	.	.	.	.	.	.
=26-	=26-	=26-	=26-	=26-	=26-	=26-	=26-	=26-	=26-
*M2/2	*	*	*	*	*	*	*M2/2	*	*
*met(C|)	*	*	*	*	*	*	*met(C|)	*	*
2d,<\	-ia	1ryy	1ryy	1ryy	1ryy	1ryy	2r	.	1ryy
1f\	di-	.	.	.	.	.	1a\	Di-	.
=27-	=27-	=27-	=27-	=27-	=27-	=27-	=27-	=27-	=27-
.	.	1ryy	1ryy	1ryy	1ryy	1ryy	.	.	1ryy
2f\	-cit	.	.	.	.	.	2cc\	-cit	.
=28-	=28-	=28-	=28-	=28-	=28-	=28-	=28-	=28-	=28-
2.B-/	Do-	1ryy	1ryy	1ryy	1ryy	1ryy	2.b-\	do-	1ryy
*	*	*	*	*	*	*	*custos:a	*	*
4B-/	-mi-	.	.	.	.	.	4b-\	-mi-	.
!	!	!	!	!	!	!	!LO:LB:g=original	!	!
=29-	=29-	=29-	=29-	=29-	=29-	=29-	=29-	=29-	=29-
!LO:TX:t=P:problem=kreska pseudotaktowa kropkowana	!	!	!	!	!	!	!	!	!
1f	-nus	1ryy	1ryy	1ryy	1ryy	1ryy	1a;<	-nus,	1ryy
=30-	=30-	=30-	=30-	=30-	=30-	=30-	=30-	=30-	=30-
00r	.	1ryy	1ryy	1ryy	1ryy	1ryy	00r	.	1ryy
=31-	=31-	=31-	=31-	=31-	=31-	=31-	=31-	=31-	=31-
.	.	1ryy	1ryy	1ryy	1ryy	1ryy	.	.	1ryy
=32-	=32-	=32-	=32-	=32-	=32-	=32-	=32-	=32-	=32-
.	.	1ryy	1ryy	1ryy	1ryy	1ryy	.	.	1ryy
=33-	=33-	=33-	=33-	=33-	=33-	=33-	=33-	=33-	=33-
.	.	1ryy	1ryy	1ryy	1ryy	1ryy	.	.	1ryy
=34-	=34-	=34-	=34-	=34-	=34-	=34-	=34-	=34-	=34-
*custos:f	*	*	*	*	*	*	*	*	*
1f	om-	1ryy	1ryy	1ryy	1ryy	1ryy	1cc	om-	1ryy
!LO:LB:g=original	!	!	!	!	!	!	!	!	!
=35-	=35-	=35-	=35-	=35-	=35-	=35-	=35-	=35-	=35-
2f\	-nis	1ryy	1ryy	1ryy	1ryy	1ryy	2a\	-nis	1ryy
2f\	qui	.	.	.	.	.	2cc\	qui	.
=36-	=36-	=36-	=36-	=36-	=36-	=36-	=36-	=36-	=36-
4B-/	pe-	1ryy	1ryy	1ryy	1ryy	1ryy	1b-	pe-	1ryy
4c/	.	.	.	.	.	.	.	.	.
4d\	.	.	.	.	.	.	.	.	.
4eny\	.	.	.	.	.	.	.	.	.
=37-	=37-	=37-	=37-	=37-	=37-	=37-	=37-	=37-	=37-
2f\	-tit	1ryy	1ryy	1ryy	1ryy	1ryy	2cc\	-tit	1ryy
2F/	ac-	.	.	.	.	.	2a\	ac-	.
=38-	=38-	=38-	=38-	=38-	=38-	=38-	=38-	=38-	=38-
1B-	-ci-	1ryy	1ryy	1ryy	1ryy	1ryy	1b-	-ci-	1ryy
=39-	=39-	=39-	=39-	=39-	=39-	=39-	=39-	=39-	=39-
2f\	-pit	1ryy	1ryy	1ryy	1ryy	1ryy	2cc\	-pit	1ryy
2f\	ac-	.	.	.	.	.	2r	.	.
=40-	=40-	=40-	=40-	=40-	=40-	=40-	=40-	=40-	=40-
2B-/	-ci-	1ryy	1ryy	1ryy	1ryy	1ryy	2r	.	1ryy
2f\	-pit	.	.	.	.	.	2cc\	ac-	.
=41-	=41-	=41-	=41-	=41-	=41-	=41-	=41-	=41-	=41-
2r	.	1ryy	1ryy	1ryy	1ryy	1ryy	2dd\	-ci-	1ryy
2f\	ac-	.	.	.	.	.	2dd\	-pit;	.
=42-	=42-	=42-	=42-	=42-	=42-	=42-	=42-	=42-	=42-
2A/	-ci-	1ryy	1ryy	1ryy	1ryy	1ryy	1r	.	1ryy
2d\	-pit	.	.	.	.	.	.	.	.
=43-	=43-	=43-	=43-	=43-	=43-	=43-	=43-	=43-	=43-
*M3/2	*	*	*	*	*	*	*M3/2	*	*
0.r	.	1.ryy	1.ryy	1.ryy	1.ryy	1.ryy	1dd	Al-	1.ryy
.	.	.	.	.	.	.	2cc\	-le-	.
=44-	=44-	=44-	=44-	=44-	=44-	=44-	=44-	=44-	=44-
.	.	1.ryy	1.ryy	1.ryy	1.ryy	1.ryy	1b-	-lu-	1.ryy
.	.	.	.	.	.	.	2cc,<\	-ia	.
=45-	=45-	=45-	=45-	=45-	=45-	=45-	=45-	=45-	=45-
1.r	.	1.ryy	1.ryy	1.ryy	1.ryy	1.ryy	2dd\	al-	1.ryy
.	.	.	.	.	.	.	2dd\	-le-	.
!	!	!	!	!	!	!	!LO:TX:b:t=P:problem=# below	!	!
.	.	.	.	.	.	.	2cc#X\	-lu-	.
=46-	=46-	=46-	=46-	=46-	=46-	=46-	=46-	=46-	=46-
2r	.	1.ryy	1.ryy	1.ryy	1.ryy	1.ryy	2dd\	-ia	1.ryy
2d\	Al-	.	.	.	.	.	2r	.	.
*	*	*	*	*	*	*	*custos:d	*	*
2A/	-le-	.	.	.	.	.	2r	.	.
!	!	!	!	!	!	!	!LO:LB:g=original	!	!
=47-	=47-	=47-	=47-	=47-	=47-	=47-	=47-	=47-	=47-
1B-	-lu-	1.ryy	1.ryy	1.ryy	1.ryy	1.ryy	0.r	.	1.ryy
*custos:G	*	*	*	*	*	*	*	*	*
2F/	-ia	.	.	.	.	.	.	.	.
!LO:PB:g=original	!	!	!	!	!	!	!	!	!
=48-	=48-	=48-	=48-	=48-	=48-	=48-	=48-	=48-	=48-
2G/	Al-	1.ryy	1.ryy	1.ryy	1.ryy	1.ryy	.	.	1.ryy
2d\	-le-	.	.	.	.	.	.	.	.
2A/	-lu-	.	.	.	.	.	.	.	.
=49-	=49-	=49-	=49-	=49-	=49-	=49-	=49-	=49-	=49-
*M2/2	*	*	*	*	*	*	*M2/2	*	*
*met(C|)	*	*	*	*	*	*	*met(C|)	*	*
2d\	-ia	1ryy	1ryy	1ryy	1ryy	1ryy	00r	.	1ryy
2r	.	.	.	.	.	.	.	.	.
=50-	=50-	=50-	=50-	=50-	=50-	=50-	=50-	=50-	=50-
0r	.	1ryy	1ryy	1ryy	1ryy	1ryy	.	.	1ryy
=51-	=51-	=51-	=51-	=51-	=51-	=51-	=51-	=51-	=51-
.	.	1ryy	1ryy	1ryy	1ryy	1ryy	.	.	1ryy
=52-	=52-	=52-	=52-	=52-	=52-	=52-	=52-	=52-	=52-
2r	.	1ryy	1ryy	1ryy	1ryy	1ryy	.	.	1ryy
2d\	in	.	.	.	.	.	.	.	.
=53-	=53-	=53-	=53-	=53-	=53-	=53-	=53-	=53-	=53-
1A	ue-	1ryy	1ryy	1ryy	1ryy	1ryy	1r	.	1ryy
=54-	=54-	=54-	=54-	=54-	=54-	=54-	=54-	=54-	=54-
2d\	-nit	1ryy	1ryy	1ryy	1ryy	1ryy	2r	.	1ryy
2r	.	.	.	.	.	.	2dd\	in	.
=55-	=55-	=55-	=55-	=55-	=55-	=55-	=55-	=55-	=55-
1r	.	1ryy	1ryy	1ryy	1ryy	1ryy	1dd	ue-	1ryy
=56-	=56-	=56-	=56-	=56-	=56-	=56-	=56-	=56-	=56-
2r	.	1ryy	1ryy	1ryy	1ryy	1ryy	2dd\	-nit	1ryy
2B-/	in	.	.	.	.	.	2r	.	.
=57-	=57-	=57-	=57-	=57-	=57-	=57-	=57-	=57-	=57-
1e-X	ue-	1ryy	1ryy	1ryy	1ryy	1ryy	1r	.	1ryy
=58-	=58-	=58-	=58-	=58-	=58-	=58-	=58-	=58-	=58-
*M3/2	*	*	*	*	*	*	*M3/2	*	*
2B-/	-nit	1.ryy	1.ryy	1.ryy	1.ryy	1.ryy	2r	.	1.ryy
2r	.	.	.	.	.	.	2b-\	Al-	.
2r	.	.	.	.	.	.	2ccny\	-le-	.
=59-	=59-	=59-	=59-	=59-	=59-	=59-	=59-	=59-	=59-
0.r	.	1.ryy	1.ryy	1.ryy	1.ryy	1.ryy	1cc	-lu-	1.ryy
.	.	.	.	.	.	.	2cc,<\	-ia	.
=60-	=60-	=60-	=60-	=60-	=60-	=60-	=60-	=60-	=60-
.	.	1.ryy	1.ryy	1.ryy	1.ryy	1.ryy	2dd\	al-	1.ryy
.	.	.	.	.	.	.	2dd\	-le-	.
!	!	!	!	!	!	!	!LO:TX:b:t=P:problem=# below	!	!
.	.	.	.	.	.	.	2cc#X\	-lu-	.
=61-	=61-	=61-	=61-	=61-	=61-	=61-	=61-	=61-	=61-
2r	.	1.ryy	1.ryy	1.ryy	1.ryy	1.ryy	2dd\	-ia	1.ryy
2d\	Al-	.	.	.	.	.	2r	.	.
2A/	-le-	.	.	.	.	.	2r	.	.
=62-	=62-	=62-	=62-	=62-	=62-	=62-	=62-	=62-	=62-
1B-	-lu-	1.ryy	1.ryy	1.ryy	1.ryy	1.ryy	0.r	.	1.ryy
2f\	-ia	.	.	.	.	.	.	.	.
=63-	=63-	=63-	=63-	=63-	=63-	=63-	=63-	=63-	=63-
*custos:B-	*	*	*	*	*	*	*	*	*
2e-X\	Al-	1.ryy	1.ryy	1.ryy	1.ryy	1.ryy	.	.	1.ryy
!LO:LB:g=original	!	!	!	!	!	!	!	!	!
2B-/	-le-	.	.	.	.	.	.	.	.
2f\	-lu-	.	.	.	.	.	.	.	.
=64-	=64-	=64-	=64-	=64-	=64-	=64-	=64-	=64-	=64-
*M2/2	*	*	*	*	*	*	*M2/2	*	*
*met(C|)	*	*	*	*	*	*	*met(C|)	*	*
2B-/	-ia	1ryy	1ryy	1ryy	1ryy	1ryy	00r	.	1ryy
2r	.	.	.	.	.	.	.	.	.
=65-	=65-	=65-	=65-	=65-	=65-	=65-	=65-	=65-	=65-
0r	.	1ryy	1ryy	1ryy	1ryy	1ryy	.	.	1ryy
=66-	=66-	=66-	=66-	=66-	=66-	=66-	=66-	=66-	=66-
.	.	1ryy	1ryy	1ryy	1ryy	1ryy	.	.	1ryy
=67-	=67-	=67-	=67-	=67-	=67-	=67-	=67-	=67-	=67-
2r	.	1ryy	1ryy	1ryy	1ryy	1ryy	.	.	1ryy
2B-/	ap-	.	.	.	.	.	.	.	.
=68-	=68-	=68-	=68-	=68-	=68-	=68-	=68-	=68-	=68-
2f\	-pe-	1ryy	1ryy	1ryy	1ryy	1ryy	1r	.	1ryy
2B-/	-ri-	.	.	.	.	.	.	.	.
=69-	=69-	=69-	=69-	=69-	=69-	=69-	=69-	=69-	=69-
2e-X\	-e-	1ryy	1ryy	1ryy	1ryy	1ryy	2r	.	1ryy
2B-/	-tur	.	.	.	.	.	2dd\	Ap-	.
=70-	=70-	=70-	=70-	=70-	=70-	=70-	=70-	=70-	=70-
1r	.	1ryy	1ryy	1ryy	1ryy	1ryy	2b-\	-pe-	1ryy
*	*	*	*	*	*	*	*custos:cc	*	*
.	.	.	.	.	.	.	2b-\	-ri-	.
!	!	!	!	!	!	!	!LO:LB:g=original	!	!
=71-	=71-	=71-	=71-	=71-	=71-	=71-	=71-	=71-	=71-
2r	.	1ryy	1ryy	1ryy	1ryy	1ryy	2ccny\	-e-	1ryy
2B-/	ap-	.	.	.	.	.	2b-\	-tur	.
=72-	=72-	=72-	=72-	=72-	=72-	=72-	=72-	=72-	=72-
2e-X\	-pe-	1ryy	1ryy	1ryy	1ryy	1ryy	1r	.	1ryy
2B-/	-ri-	.	.	.	.	.	.	.	.
=73-	=73-	=73-	=73-	=73-	=73-	=73-	=73-	=73-	=73-
2f\	-e-	1ryy	1ryy	1ryy	1ryy	1ryy	2r	.	1ryy
2B-/	-tur	.	.	.	.	.	2dd\	ap-	.
=74-	=74-	=74-	=74-	=74-	=74-	=74-	=74-	=74-	=74-
1r	.	1ryy	1ryy	1ryy	1ryy	1ryy	2b-\	-pe-	1ryy
.	.	.	.	.	.	.	2b-\	-ri-	.
=75-	=75-	=75-	=75-	=75-	=75-	=75-	=75-	=75-	=75-
2r	.	1ryy	1ryy	1ryy	1ryy	1ryy	2cc\	-e-	1ryy
2B-/	ap-	.	.	.	.	.	2b-\	-tur,	.
=76-	=76-	=76-	=76-	=76-	=76-	=76-	=76-	=76-	=76-
2e-X\	-pe-	1ryy	1ryy	1ryy	1ryy	1ryy	0r	.	1ryy
2B-/	-ri-	.	.	.	.	.	.	.	.
=77-	=77-	=77-	=77-	=77-	=77-	=77-	=77-	=77-	=77-
2f\	-e-	1ryy	1ryy	1ryy	1ryy	1ryy	.	.	1ryy
2B-/	-tur	.	.	.	.	.	.	.	.
=78-	=78-	=78-	=78-	=78-	=78-	=78-	=78-	=78-	=78-
*M3/2	*	*	*	*	*	*	*M3/2	*	*
*custos:F	*	*	*	*	*	*	*	*	*
1.r	.	1.ryy	1.ryy	1.ryy	1.ryy	1.ryy	2cc\	Al-	1.ryy
.	.	.	.	.	.	.	2cc\	-le-	.
.	.	.	.	.	.	.	2cc\	-lu-	.
!LO:LB:g=original	!	!	!	!	!	!	!	!	!
=79-	=79-	=79-	=79-	=79-	=79-	=79-	=79-	=79-	=79-
2F/	Al-	1.ryy	1.ryy	1.ryy	1.ryy	1.ryy	2cc\	-ia	1.ryy
2F/	-le-	.	.	.	.	.	2r	.	.
2c/	-lu-	.	.	.	.	.	2r	.	.
=80-	=80-	=80-	=80-	=80-	=80-	=80-	=80-	=80-	=80-
2F/	-ia	1.ryy	1.ryy	1.ryy	1.ryy	1.ryy	2cc\	al-	1.ryy
2r	.	.	.	.	.	.	2dd\	-le-	.
2r	.	.	.	.	.	.	2b-\	-lu-	.
=81-	=81-	=81-	=81-	=81-	=81-	=81-	=81-	=81-	=81-
*M2/2	*	*	*	*	*	*	*M2/2	*	*
*met(C|)	*	*	*	*	*	*	*met(C|)	*	*
2r	.	1ryy	1ryy	1ryy	1ryy	1ryy	2cc,<\	-ia	1ryy
1f\	Al-	.	.	.	.	.	1cc\	al-	.
=82-	=82-	=82-	=82-	=82-	=82-	=82-	=82-	=82-	=82-
.	.	1ryy	1ryy	1ryy	1ryy	1ryy	.	.	1ryy
2f\	-le-	.	.	.	.	.	2a\	-le-	.
=83-	=83-	=83-	=83-	=83-	=83-	=83-	=83-	=83-	=83-
!LO:TX:t=P:problem=kreska pseudotaktowa kropkowana	!	!	!	!	!	!	!	!	!
0B-	-lu-	1ryy	1ryy	1ryy	1ryy	1ryy	0cc	-lu-	1ryy
=84-	=84-	=84-	=84-	=84-	=84-	=84-	=84-	=84-	=84-
.	.	1ryy	1ryy	1ryy	1ryy	1ryy	.	.	1ryy
=85-	=85-	=85-	=85-	=85-	=85-	=85-	=85-	=85-	=85-
1fl;;	-ia	1ryy	1ryy	1ryy	1ryy	1ryy	1ccl;;	-ia;	1ryy
==	==	==	==	==	==	==	==	==	==
*-	*-	*-	*-	*-	*-	*-	*-	*-	*-
!!!system-decoration: [(g1)][(g2)]
!!!RDF**kern: < = below
!!!RDF**kern: l = terminal long
!!!ENC: Andrzej Gręziak
!!!END: 2021-10-19
!!!ENC: Andrzej Kubiczek
!!!END: 2021-10-23
